packages/synapse-interface/assets/icons/unidex.svg

<svg fill="none" height="48" viewBox="0 0 48 48" width="48" xmlns="http://www.w3.org/2000/svg" xmlns:xlink="http://www.w3.org/1999/xlink"><linearGradient id="a" gradientUnits="userSpaceOnUse" x1="4.4" x2="40.4" y1="24" y2="24"><stop offset="0" stop-color="#4ff684"/><stop offset="1" stop-color="#6adeef"/></linearGradient><clipPath id="b"><path d="m4.40002 6h36v36h-36z"/></clipPath><rect fill="#000" height="48" rx="24" width="48"/><g clip-path="url(#b)"><path d="m33.3523 41.0748h-11.7429c-.3222 0-.6248-.1721-.7883-.448-.1636-.276-.1668-.6218-.0098-.901l2.0067-3.5615h-5.5214c-.2731 0-.5267-.1461-.6608-.3815l-2.288-3.7709-2.0902 3.5809c-.1554.2679-.4449.4335-.7556.4335-.0016 0-.0033 0-.0049 0-.3124-.0016-.6035-.1721-.7556-.4415l-6.22961-10.9737c-.1521-.2678-.14883-.6006.00818-.8652l6.22963-10.5386c.1554-.2629.4416-.4269.749-.4285h.0049c.3043 0 .5904.1607.7491.4188l2.0084 3.3051 2.3613-3.9191c.1339-.235.3825-.3813.6529-.3843h5.6687l-2.2714-4.16318c-.126-.23097-.1214-.51117.0122-.73786.1324-.22469.3722-.36418.633-.36814l.0087-.00013h12.1096c.2695 0 .5191.14184.657.37337l6.1937 10.71384c.1504.2614.1504.5845-.0017.8458-.1521.2614-.435.4221-.7376.4221h-4.3962l2.5857 4.3115c.201.3336.1982.7943.0198 1.1406.0028-.0049-.0027.0052 0 0l-2.5319 4.3397h4.2147c.3271 0 .6313.1753.7932.4577.1619.2825.1586.6315-.0082.9107l-6.0873 10.1847c-.1636.2744-.4645.4448-.785.4448zm-10.7894-1.461h10.4721l5.4249-9.0759h-4.0871l-3.0584 5.2384c-.1406.2386-.4023.388-.682.388h-6.1266zm2.7673-4.9121h4.9097l2.4304-4.1655h-4.9948zm-6.7776 0h5.0897l2.9096-5.1622c.1619-.2857.4661-.4643.7964-.4643h6.174l2.4304-4.1654h-11.5303zm-3.3576-4.1395 2.064 3.4431 5.891-9.8243-5.891-9.8243-2.136 3.5631 3.5343 5.8147c.1652.2711.1684.6088.0082.8831zm-9.23406-6.3731 5.54766 9.7723 1.9772-3.3878-3.56695-5.9478c-.16356-.2744-.16356-.6137 0-.888l3.48525-5.8131-1.8939-3.12zm5.40696-.0081 2.9651 4.9429 2.8818-4.9364-2.9455-4.8456zm13.0562-.7306h11.5122l-2.4974-4.1653h-6.1769c-.2744 0-.5278-.1468-.6643-.3848l-2.8573-5.2417h-5.1878zm9.8522-5.6263h4.2032l-5.4527-9.43313h-10.4852l2.0754 3.80833h5.7505c.3303 0 .6395.1753.8079.4561zm-6.5927 0h4.8804l-2.4974-4.1655h-4.6514z" fill="url(#a)"/></g></svg>

<svg width="48" height="48" viewBox="0 0 48 48" fill="none" xmlns="http://www.w3.org/2000/svg">
<rect width="48" height="48" rx="24" fill="black"/>
<g clip-path="url(#clip0_1275_22757)">
<path d="M33.3523 41.0748H21.6094C21.2872 41.0748 20.9846 40.9027 20.8211 40.6268C20.6575 40.3508 20.6543 40.005 20.8113 39.7258L22.818 36.1643H17.2966C17.0235 36.1643 16.7699 36.0182 16.6358 35.7828L14.3478 32.0119L12.2576 35.5928C12.1022 35.8607 11.8127 36.0263 11.502 36.0263C11.5004 36.0263 11.4987 36.0263 11.4971 36.0263C11.1847 36.0247 10.8936 35.8542 10.7415 35.5848L4.51189 24.6111C4.35979 24.3433 4.36306 24.0105 4.52007 23.7459L10.7497 13.2073C10.9051 12.9444 11.1913 12.7804 11.4987 12.7788C11.5004 12.7788 11.502 12.7788 11.5036 12.7788C11.8079 12.7788 12.094 12.9395 12.2527 13.1976L14.2611 16.5027L16.6224 12.5836C16.7563 12.3486 17.0049 12.2023 17.2753 12.1993H22.944L20.6726 8.03612C20.5466 7.80515 20.5512 7.52495 20.6848 7.29826C20.8172 7.07357 21.057 6.93408 21.3178 6.93012L21.3265 6.92999H33.4361C33.7056 6.92999 33.9552 7.07183 34.0931 7.30336L40.2868 18.0172C40.4372 18.2786 40.4372 18.6017 40.2851 18.863C40.133 19.1244 39.8501 19.2851 39.5475 19.2851H35.1513L37.737 23.5966C37.938 23.9302 37.9352 24.3909 37.7568 24.7372C37.7596 24.7323 37.7541 24.7424 37.7568 24.7372L35.2249 29.0769H39.4396C39.7667 29.0769 40.0709 29.2522 40.2328 29.5346C40.3947 29.8171 40.3914 30.1661 40.2246 30.4453L34.1373 40.63C33.9737 40.9044 33.6728 41.0748 33.3523 41.0748ZM22.5629 39.6138H33.035L38.4599 30.5379H34.3728L31.3144 35.7763C31.1738 36.0149 30.9121 36.1643 30.6324 36.1643H24.5058L22.5629 39.6138ZM25.3302 34.7017H30.2399L32.6703 30.5362H27.6755L25.3302 34.7017ZM18.5526 34.7017H23.6423L26.5519 29.5395C26.7138 29.2538 27.018 29.0752 27.3483 29.0752H33.5223L35.9527 24.9098H24.4224L18.5526 34.7017ZM15.195 30.5622L17.259 34.0053L23.15 24.181L17.259 14.3567L15.123 17.9198L18.6573 23.7345C18.8225 24.0056 18.8257 24.3433 18.6655 24.6176L15.195 30.5622ZM5.96094 24.1891L11.5086 33.9614L13.4858 30.5736L9.91885 24.6258C9.75529 24.3514 9.75529 24.0121 9.91885 23.7378L13.4041 17.9247L11.5102 14.8047L5.96094 24.1891ZM11.3679 24.181L14.333 29.1239L17.2148 24.1875L14.2693 19.3419L11.3679 24.181ZM24.4241 23.4504H35.9363L33.4389 19.2851H27.262C26.9876 19.2851 26.7342 19.1383 26.5977 18.9003L23.7404 13.6586H18.5526L24.4241 23.4504ZM34.2763 17.8241H38.4795L33.0268 8.39097H22.5416L24.617 12.1993H30.3675C30.6978 12.1993 31.007 12.3746 31.1754 12.6554L34.2763 17.8241ZM27.6836 17.8241H32.564L30.0666 13.6586H25.4152L27.6836 17.8241Z" fill="url(#paint0_linear_1275_22757)"/>
</g>
<defs>
<linearGradient id="paint0_linear_1275_22757" x1="4.40002" y1="24" x2="40.4" y2="24" gradientUnits="userSpaceOnUse">
<stop stop-color="#4FF684"/>
<stop offset="1" stop-color="#6ADEEF"/>
</linearGradient>
<clipPath id="clip0_1275_22757">
<rect width="36" height="36" fill="white" transform="translate(4.40002 6)"/>
</clipPath>
</defs>
</svg>
